X: 4018
T: EIGHT O'CLOCK TRAIN
R: Reel.
%R: reel
B: James Kerr "Merry Melodies" v.4 p.05 #18
Z: 2016 John Chambers <jc:trillian.mit.edu>
M: C|
L: 1/8
K: A
(uAB) |\
c2Ac B2GB | A=GED (GE)D2 |\
EAAB cdef | =gedB =GABd |\
c2Ac B2GB | A=GED (GE)D2 |\
EAAB cdef |
=gedB A3 |] c |\
eagb ageg | agbg agef |\
=g2(ga) gfef | =geaf (ge)d2 |\
eaab ageg |
agbg agef |\
=g2g2 a2a2 | b=gaf gedB |\
cBAc BAGB | A=GED (GE)D2 |\
EAAB cdef | =gedB A3 :|

%%sep 1 1 500
%%sep 1 1 500

